images/close-icon.svg

<svg width="28" height="28" viewBox="0 0 28 28" fill="none" xmlns="http://www.w3.org/2000/svg">
<path fill-rule="evenodd" clip-rule="evenodd" d="M21.8249 6.17472C22.2805 6.63033 22.2805 7.36902 21.8249 7.82463L7.82488 21.8246C7.36926 22.2802 6.63057 22.2802 6.17496 21.8246C5.71935 21.369 5.71935 20.6303 6.17496 20.1747L20.175 6.17472C20.6306 5.7191 21.3693 5.7191 21.8249 6.17472Z" fill="#F6F7F9"/>
<path fill-rule="evenodd" clip-rule="evenodd" d="M6.17496 6.17472C6.63057 5.7191 7.36926 5.7191 7.82488 6.17472L21.8249 20.1747C22.2805 20.6303 22.2805 21.369 21.8249 21.8246C21.3693 22.2802 20.6306 22.2802 20.175 21.8246L6.17496 7.82463C5.71935 7.36902 5.71935 6.63033 6.17496 6.17472Z" fill="#F6F7F9"/>
</svg>

<svg width="28" height="28" fill="none" xmlns="http://www.w3.org/2000/svg"><path fill-rule="evenodd" clip-rule="evenodd" d="M21.825 6.175a1.167 1.167 0 010 1.65l-14 14a1.167 1.167 0 01-1.65-1.65l14-14a1.167 1.167 0 011.65 0z" fill="#F6F7F9"/><path fill-rule="evenodd" clip-rule="evenodd" d="M6.175 6.175a1.167 1.167 0 011.65 0l14 14a1.167 1.167 0 01-1.65 1.65l-14-14a1.167 1.167 0 010-1.65z" fill="#F6F7F9"/></svg>
